icons/glyphs/glyph-gwenview.svg

<?xml version="1.0" encoding="UTF-8" standalone="no"?><svg height="22" viewBox="0 0 22 22" width="22" xmlns="http://www.w3.org/2000/svg"><sodipodi:namedview/><metadata><rdf:RDF><cc:Work><dc:format>image/svg+xml</dc:format><dc:type/><dc:title/></cc:Work></rdf:RDF></metadata><path d="m11 3.890625c-5.9885298-.000002-10.84375 7.109375-10.84375 7.109375s4.8552232 7.109376 10.84375 7.109375c5.988528 0 10.84375-7.109375 10.84375-7.109375s-4.855224-7.109376-10.84375-7.109375zm0 2.1347656a4.9754906 4.9754906 0 0 1 4.974609 4.9746094 4.9754906 4.9754906 0 0 1 -4.974609 4.974609 4.9754906 4.9754906 0 0 1 -4.9746094-4.974609 4.9754906 4.9754906 0 0 1 4.9746094-4.9746094z" fill="#fff" stroke-width="2"/></svg>

<?xml version="1.0" encoding="UTF-8" standalone="no"?>
<!-- Created with Inkscape (http://www.inkscape.org/) -->

<svg
   xmlns:dc="http://purl.org/dc/elements/1.1/"
   xmlns:cc="http://creativecommons.org/ns#"
   xmlns:rdf="http://www.w3.org/1999/02/22-rdf-syntax-ns#"
   xmlns:svg="http://www.w3.org/2000/svg"
   xmlns="http://www.w3.org/2000/svg"
   xmlns:sodipodi="http://sodipodi.sourceforge.net/DTD/sodipodi-0.dtd"
   xmlns:inkscape="http://www.inkscape.org/namespaces/inkscape"
   width="22"
   height="22"
   viewBox="0 0 22 22"
   version="1.1"
   id="svg8"
   inkscape:version="0.92+devel 15640 custom"
   sodipodi:docname="glyph-gwenview.svg">
  <defs
     id="defs2" />
  <sodipodi:namedview
     id="base"
     pagecolor="#002266"
     bordercolor="#ffffff"
     borderopacity="0.46666667"
     inkscape:pageopacity="0"
     inkscape:pageshadow="2"
     inkscape:zoom="13.081476"
     inkscape:cx="16.621911"
     inkscape:cy="12.794693"
     inkscape:document-units="px"
     inkscape:current-layer="svg8"
     inkscape:document-rotation="0"
     showgrid="false"
     inkscape:showpageshadow="false"
     borderlayer="true"
     units="px"
     fit-margin-top="0"
     fit-margin-left="0"
     fit-margin-right="0"
     fit-margin-bottom="0"
     inkscape:window-width="1920"
     inkscape:window-height="1051"
     inkscape:window-x="0"
     inkscape:window-y="0"
     inkscape:window-maximized="1" />
  <metadata
     id="metadata5">
    <rdf:RDF>
      <cc:Work
         rdf:about="">
        <dc:format>image/svg+xml</dc:format>
        <dc:type
           rdf:resource="http://purl.org/dc/dcmitype/StillImage" />
        <dc:title></dc:title>
      </cc:Work>
    </rdf:RDF>
  </metadata>
  <path
     style="fill:#ffffff;stroke-width:2"
     d="M 11 3.890625 C 5.0114702 3.890623 0.15625 11 0.15625 11 C 0.15625 11 5.0114732 18.109376 11 18.109375 C 16.988528 18.109375 21.84375 11 21.84375 11 C 21.84375 11 16.988526 3.890624 11 3.890625 z M 11 6.0253906 A 4.9754906 4.9754906 0 0 1 15.974609 11 A 4.9754906 4.9754906 0 0 1 11 15.974609 A 4.9754906 4.9754906 0 0 1 6.0253906 11 A 4.9754906 4.9754906 0 0 1 11 6.0253906 z "
     id="path4261"
     inkscape:label="glyph" />
</svg>
